; generated by PrusaSlicer 2.7.0-rc1+win64 on 2024-05-12 at 14:22:37 UTC


;
;
; 

; external perimeters extrusion width = 0.68mm
; perimeters extrusion width = 0.68mm
; infill extrusion width = 0.68mm
; solid infill extrusion width = 0.68mm
; top infill extrusion width = 0.60mm
; support material extrusion width = 0.50mm
; first layer extrusion width = 0.63mm

M73 P0 R27
M190 S85 ; set bed temperature and wait for it to be reached
G10 S230 P1 ; set temperature
;TYPE:Custom
;Set standby temperatures
;G10 R220 P0
G10 R230 P1
G28 ; home all axes
G32 ; run bed.g -- probe bed and enable compensation
;workaround for toolchanger when using only one extruder
T1; select tool
G10 S230 P1 ; set temperature
M116 ; wait for temperature to be reached
G21 ; set units to millimeters
G90 ; use absolute coordinates
M82 ; use absolute distances for extrusion
G92 E0
;tool change macro
T1
G92 E0
; Filament gcode
M107
;LAYER_CHANGE
;Z:0.2
;HEIGHT:0.2
G1 E-.4 F2100
G92 E0
G1 Z.2 F12000
G1 X30.667 Y30.667
G1 E.4 F2100
;TYPE:Skirt/Brim
;WIDTH:0.63
G1 F2700
G1 X32.306 Y29.027 E.50753
G1 X34.251 Y27.643 E.61823
G1 X37.379 Y26.926 E.76705
G1 X182.621 Y26.926 E7.50266
G1 X184.975 Y27.323 E7.61337
G1 X187.694 Y29.027 E7.76218
G1 X190.623 Y31.956 E7.95428
G1 X192.007 Y33.901 E8.06498
G1 X192.724 Y37.029 E8.2138
G1 X192.724 Y172.971 E14.51812
G1 X192.327 Y175.325 E14.62883
G1 X190.623 Y178.044 E14.77764
G1 X187.694 Y180.973 E14.96974
G1 X185.749 Y182.357 E15.08044
G1 X182.621 Y183.074 E15.22926
G1 X37.379 Y183.074 E21.96487
G1 X35.025 Y182.677 E22.07558
G1 X32.306 Y180.973 E22.22439
G1 X29.377 Y178.044 E22.41649
G1 X27.993 Y176.099 E22.52719
G1 X27.276 Y172.971 E22.67601
G1 X27.276 Y37.029 E28.98033
G1 X27.673 Y34.675 E29.09104
G1 X29.377 Y31.956 E29.23985
G1 X30.603 Y30.73 E29.32026
G1 X31.018 Y31.145 F12000
G1 F2700
G1 X32.721 Y29.442 E29.43195
G1 X34.594 Y28.13 E29.538
G1 X37.379 Y27.513 E29.67029
G1 X182.621 Y27.513 E36.4059
G1 X184.873 Y27.91 E36.51195
M73 P1 R27
G1 X187.279 Y29.442 E36.64423
G1 X190.208 Y32.371 E36.83633
G1 X191.52 Y34.244 E36.94238
G1 X192.137 Y37.029 E37.07467
G1 X192.137 Y172.971 E43.37899
G1 X191.74 Y175.223 E43.48504
G1 X190.208 Y177.629 E43.61732
G1 X187.279 Y180.558 E43.80942
G1 X185.406 Y181.87 E43.91547
G1 X182.621 Y182.487 E44.04776
G1 X37.379 Y182.487 E50.78337
G1 X35.127 Y182.09 E50.88942
G1 X32.721 Y180.558 E51.0217
G1 X29.792 Y177.629 E51.2138
G1 X28.48 Y175.756 E51.31985
G1 X27.863 Y172.971 E51.45214
G1 X27.863 Y37.029 E57.75646
G1 X28.26 Y34.777 E57.86251
G1 X29.792 Y32.371 E57.99479
G1 X30.954 Y31.209 E58.071
G1 E57.671 F2100
G92 E0
G1 X30.954 Y31.209 Z.3 F12000
G1 X36.034 Y36.289
G1 Z.2
G1 E.4 F2100
G1 F2700
G1 X36.713 Y35.61 E.44453
G1 X37.319 Y35.185 E.47886
G1 X38.007 Y34.88 E.51376
G1 X38.917 Y34.697 E.55681
G1 X181.148 Y34.703 E7.15278
G1 X181.888 Y34.847 E7.18774
G1 X182.644 Y35.163 E7.22574
G1 X183.17 Y35.513 E7.25504
G1 X184.029 Y36.351 E7.31069
G1 X184.555 Y37.136 E7.35451
G1 X184.826 Y37.839 E7.38945
G1 X184.953 Y38.567 E7.42372
G1 X184.953 Y171.435 E13.58548
G1 X184.8 Y172.247 E13.6238
M73 P2 R27
G1 X184.44 Y173.078 E13.6658
G1 X184.029 Y173.648 E13.69839
G1 X183.287 Y174.39 E13.74705
G1 X182.514 Y174.905 E13.79013
G1 X181.811 Y175.176 E13.82507
G1 X181.083 Y175.303 E13.85934
G1 X38.915 Y175.303 E20.45239
G1 X38.103 Y175.15 E20.49071
G1 X37.272 Y174.79 E20.53271
G1 X36.702 Y174.379 E20.5653
G1 X35.96 Y173.637 E20.61396
G1 X35.445 Y172.864 E20.65704
G1 X35.174 Y172.161 E20.69198
G1 X35.047 Y171.433 E20.72625
G1 X35.047 Y38.565 E26.88801
G1 X35.2 Y37.753 E26.92633
G1 X35.56 Y36.922 E26.96833
G1 X35.971 Y36.353 E27.00088
G1 X36.402 Y36.751 F12000
G1 F2700
G1 X37.109 Y36.044 E27.04725
G1 X37.628 Y35.685 E27.07652
G1 X38.211 Y35.431 E27.10601
G1 X38.946 Y35.284 E27.14077
G1 X181.118 Y35.29 E33.73401
G1 X181.742 Y35.416 E33.76353
G1 X182.346 Y35.67 E33.79392
G1 X182.782 Y35.954 E33.81805
G1 X183.597 Y36.75 E33.87088
G1 X184.021 Y37.382 E33.90617
G1 X184.254 Y37.973 E33.93563
G1 X184.366 Y38.595 E33.96494
G1 X184.366 Y171.406 E40.12406
G1 X184.231 Y172.101 E40.15689
G1 X183.917 Y172.811 E40.19289
G1 X183.598 Y173.249 E40.21802
G1 X182.892 Y173.955 E40.26432
G1 X182.268 Y174.371 E40.2991
G1 X181.677 Y174.604 E40.32856
G1 X181.055 Y174.716 E40.35787
G1 X38.944 Y174.716 E46.94828
G1 X38.249 Y174.581 E46.98111
M73 P3 R27
G1 X37.539 Y174.267 E47.01711
G1 X37.101 Y173.948 E47.04224
G1 X36.395 Y173.242 E47.08854
G1 X35.979 Y172.618 E47.12332
G1 X35.746 Y172.027 E47.15278
G1 X35.634 Y171.405 E47.18209
G1 X35.634 Y38.594 E53.34121
G1 X35.769 Y37.899 E53.37404
G1 X36.083 Y37.189 E53.41004
G1 X36.349 Y36.824 E53.43098
G1 X36.805 Y37.242 F12000
G1 F2700
G1 X37.504 Y36.48 E53.47893
G1 X37.933 Y36.187 E53.50302
G1 X38.412 Y35.983 E53.52716
G1 X38.975 Y35.871 E53.55378
G1 X181.088 Y35.877 E60.14428
G1 X182.055 Y36.18 E60.19127
M73 P3 R26
G1 X182.394 Y36.396 E60.20991
G1 X183.165 Y37.149 E60.25989
G1 X183.488 Y37.63 E60.28676
G1 X183.683 Y38.113 E60.31092
G1 X183.779 Y38.623 E60.33499
G1 X183.779 Y171.375 E66.49137
G1 X183.663 Y171.949 E66.51853
G1 X183.396 Y172.539 E66.54856
G1 X182.497 Y173.519 E66.61023
G1 X182.02 Y173.838 E66.63684
G1 X181.537 Y174.033 E66.661
G1 X181.027 Y174.129 E66.68507
G1 X38.975 Y174.129 E73.27274
G1 X38.401 Y174.013 E73.2999
G1 X37.811 Y173.746 E73.32993
G1 X36.831 Y172.847 E73.3916
G1 X36.512 Y172.37 E73.41821
G1 X36.317 Y171.887 E73.44237
G1 X36.221 Y171.377 E73.46644
G1 X36.221 Y38.625 E79.62282
G1 X36.337 Y38.051 E79.64998
G1 X36.604 Y37.461 E79.68001
G1 X36.744 Y37.308 E79.68963
G1 X37.25 Y37.578 F12000
G1 F2700
G1 X37.265 Y37.549 E79.69114
G1 X37.898 Y36.916 E79.73265
G1 X38.233 Y36.692 E79.75134
G1 X39.003 Y36.458 E79.78866
G1 X181.055 Y36.464 E86.37633
G1 X181.393 Y36.537 E86.39237
M73 P4 R26
G1 X182.009 Y36.841 E86.42423
G1 X182.733 Y37.547 E86.47113
G1 X182.958 Y37.883 E86.48988
G1 X183.192 Y38.653 E86.5272
G1 X183.192 Y171.346 E92.68085
G1 X183.112 Y171.743 E92.69963
G1 X182.735 Y172.451 E92.73683
G1 X182.102 Y173.084 E92.77834
G1 X181.767 Y173.308 E92.79703
G1 X180.997 Y173.542 E92.83435
G1 X39.004 Y173.542 E99.41929
G1 X38.607 Y173.462 E99.43807
G1 X37.899 Y173.085 E99.47527
G1 X37.266 Y172.452 E99.51678
G1 X37.042 Y172.117 E99.53547
G1 X36.808 Y171.347 E99.57279
G1 X36.808 Y38.654 E105.72644
G1 X36.888 Y38.257 E105.74522
G1 X37.207 Y37.657 E105.77673
G1 X37.629 Y38.055 F12000
G1 F2700
G1 X38.292 Y37.352 E105.82154
G1 X39.032 Y37.045 E105.85869
G1 X181.021 Y37.051 E112.44344
G1 X181.666 Y37.318 E112.47581
G1 X182.299 Y37.943 E112.51706
G1 X182.605 Y38.682 E112.55415
G1 X182.605 Y171.318 E118.70515
G1 X182.402 Y171.912 E118.73426
M73 P5 R26
G1 X181.708 Y172.648 E118.78117
G1 X180.968 Y172.955 E118.81832
G1 X39.032 Y172.955 E125.40061
G1 X38.438 Y172.752 E125.42972
G1 X37.702 Y172.058 E125.47663
G1 X37.395 Y171.318 E125.51378
G1 X37.395 Y38.682 E131.66478
G1 X37.584 Y38.13 E131.69184
G1 X38.129 Y38.356 F12000
G1 F2700
G1 X38.137 Y38.337 E131.6928
G1 X38.687 Y37.787 E131.72887
G1 X39.061 Y37.632 E131.74764
G1 X180.939 Y37.632 E138.32724
G1 X181.313 Y37.787 E138.34601
G1 X181.863 Y38.337 E138.38208
G1 X182.018 Y38.711 E138.40085
G1 X182.018 Y171.289 E144.54916
G1 X181.863 Y171.663 E144.56793
G1 X181.313 Y172.213 E144.604
G1 X180.939 Y172.368 E144.62277
G1 X39.061 Y172.368 E151.20237
G1 X38.687 Y172.213 E151.22114
M73 P6 R26
G1 X38.137 Y171.663 E151.25721
G1 X37.982 Y171.289 E151.27598
G1 X37.982 Y38.711 E157.42429
G1 X38.095 Y38.439 E157.43795
G1 X38.569 Y38.798 F12000
G1 F2700
G1 X39.041 Y38.264 E157.471
G1 X180.959 Y38.264 E164.05246
G1 X181.431 Y38.798 E164.08551
G1 X181.431 Y171.202 E170.22576
G1 X180.959 Y171.736 E170.25881
G1 X39.148 Y171.781 E176.83531
G1 X38.614 Y171.309 E176.86836
G1 X38.569 Y38.888 E183.00939
G1 X39.156 Y38.978 F12000
M73 P6 R25
G1 F2700
G1 X39.328 Y38.806 E183.02067
G1 X180.672 Y38.806 E189.57551
G1 X180.844 Y38.978 E189.58679
M73 P7 R25
G1 X180.844 Y171.022 E195.71034
G1 X180.672 Y171.194 E195.72162
G1 X39.328 Y171.194 E202.27646
G1 X39.156 Y171.022 E202.28774
G1 X39.156 Y39.068 E208.40712
G1 E208.00712 F2100
G92 E0
G1 X39.156 Y39.068 Z.3 F12000
G1 X179.018 Y169.998
G1 Z.2
G1 E.4 F2100
;TYPE:Perimeter
;WIDTH:0.629999
G1 F3300
G1 X40.352 Y169.998 E6.83064
G1 X40.352 Y40.002 E12.85921
G1 X179.648 Y40.002 E19.31907
M73 P8 R25
G1 X179.648 Y46.5 E19.62041
G1 X179.648 Y169.998 E25.34763
G1 X179.108 Y169.998 E25.37267
G1 X180.235 Y170.585 F12000
;TYPE:External perimeter
G1 F2970
G1 X39.765 Y170.585 E31.88697
G1 X39.765 Y39.415 E37.96998
G1 X180.235 Y39.415 E44.48428
G1 X180.235 Y46.5 E44.81285
G1 X180.235 Y170.495 E50.56312
G1 X179.642 Y170.584 F12000
G1 E50.16312 F2100
G92 E0
G1 Z.3 F12000
G1 X160.319 Y159.779
G1 Z.2
G1 E.4 F2100
M73 P9 R25
;TYPE:Perimeter
G1 F3300
G1 X160.278 Y159.974 E.40924
G1 X160.098 Y160.24 E.42413
G1 X159.824 Y160.428 E.43954
G1 X159.471 Y160.502 E.45627
G1 X153.729 Y160.502 E.72256
G1 X153.383 Y160.431 E.73894
G1 X153.111 Y160.249 E.75412
G1 X152.913 Y159.954 E.7706
G1 X152.848 Y159.621 E.78633
G1 X152.848 Y157.002 E.90779
G1 X150.129 Y157.002 E1.03388
G1 X149.782 Y156.931 E1.05031
G1 X149.53 Y156.767 E1.06425
G1 X149.353 Y156.539 E1.07764
G1 X149.251 Y156.198 E1.09415
G1 X149.248 Y53.879 E5.8392
G1 X149.3 Y53.581 E5.85323
G1 X149.473 Y53.29 E5.86893
G1 X149.53 Y53.233 E5.87267
G1 X149.819 Y53.054 E5.88843
G1 X150.129 Y52.998 E5.90304
G1 X152.848 Y52.998 E6.02913
G1 X152.848 Y50.379 E6.15059
G1 X152.913 Y50.046 E6.16632
G1 X153.111 Y49.751 E6.1828
G1 X153.383 Y49.569 E6.19798
G1 X153.729 Y49.498 E6.21436
G1 X159.471 Y49.498 E6.48065
G1 X159.824 Y49.572 E6.49738
G1 X160.098 Y49.76 E6.51279
G1 X160.278 Y50.026 E6.52768
G1 X160.352 Y50.379 E6.54441
G1 X160.352 Y52.998 E6.66587
G1 X176.371 Y52.998 E7.40875
G1 X176.565 Y53.019 E7.4178
G1 X176.786 Y53.102 E7.42875
G1 X177.009 Y53.271 E7.44173
G1 X177.184 Y53.54 E7.45661
G1 X177.252 Y53.879 E7.47264
G1 X177.252 Y156.121 E12.21412
G1 X177.184 Y156.46 E12.23015
G1 X177.009 Y156.729 E12.24503
G1 X176.786 Y156.898 E12.25801
G1 X176.565 Y156.981 E12.26896
G1 X176.371 Y157.002 E12.27801
G1 X160.352 Y157.002 E13.02089
G1 X160.352 Y159.621 E13.14235
G1 X160.338 Y159.69 E13.14562
G1 X159.471 Y159.915 F12000
;TYPE:External perimeter
G1 F2970
G1 X153.729 Y159.915 E13.41191
G1 X153.549 Y159.854 E13.42072
G1 X153.445 Y159.696 E13.42949
G1 X153.435 Y159.621 E13.433
G1 X153.435 Y156.415 E13.58168
G1 X150.129 Y156.415 E13.735
G1 X149.946 Y156.351 E13.74399
G1 X149.84 Y156.173 E13.7536
G1 X149.835 Y53.879 E18.49749
G1 X149.929 Y53.663 E18.50841
G1 X150.09 Y53.588 E18.51665
G1 X153.435 Y53.585 E18.67177
G1 X153.435 Y50.379 E18.82045
G1 X153.5 Y50.194 E18.82954
G1 X153.678 Y50.089 E18.83912
G1 X159.471 Y50.085 E19.10777
G1 X159.654 Y50.149 E19.11676
G1 X159.757 Y50.311 E19.12566
G1 X159.765 Y50.379 E19.12884
G1 X159.765 Y53.585 E19.27752
G1 X176.371 Y53.585 E20.04762
G1 X176.51 Y53.62 E20.05427
G1 X176.642 Y53.766 E20.0634
G1 X176.665 Y53.879 E20.06875
G1 X176.665 Y156.121 E24.81023
G1 X176.584 Y156.324 E24.82037
G1 X176.436 Y156.408 E24.82826
G1 X176.371 Y156.415 E24.83129
G1 X159.765 Y156.415 E25.60139
G1 X159.765 Y159.621 E25.75007
G1 X159.703 Y159.802 E25.75894
G1 X159.559 Y159.899 E25.76699
G1 X158.959 Y159.913 F12000
G1 E25.36699 F2100
G92 E0
G1 Z.3 F12000
G1 X124.819 Y159.779
G1 Z.2
G1 E.4 F2100
;TYPE:Perimeter
G1 F3300
G1 X124.778 Y159.974 E.40924
G1 X124.598 Y160.24 E.42413
G1 X124.324 Y160.428 E.43954
G1 X123.971 Y160.502 E.45627
G1 X118.229 Y160.502 E.72256
G1 X117.883 Y160.431 E.73894
G1 X117.611 Y160.249 E.75412
G1 X117.413 Y159.954 E.7706
G1 X117.348 Y159.621 E.78633
G1 X117.348 Y157.002 E.90779
G1 X114.629 Y157.002 E1.03388
G1 X114.282 Y156.931 E1.05031
G1 X114.03 Y156.767 E1.06425
G1 X113.853 Y156.539 E1.07764
G1 X113.751 Y156.198 E1.09415
G1 X113.748 Y53.879 E5.8392
G1 X113.8 Y53.581 E5.85323
G1 X113.973 Y53.29 E5.86893
G1 X114.187 Y53.117 E5.88169
G1 X114.513 Y53.006 E5.89766
G1 X117.348 Y52.998 E6.02913
G1 X117.348 Y50.379 E6.15059
G1 X117.413 Y50.046 E6.16632
G1 X117.611 Y49.751 E6.1828
G1 X117.883 Y49.569 E6.19798
G1 X118.229 Y49.498 E6.21436
G1 X123.971 Y49.498 E6.48065
G1 X124.324 Y49.572 E6.49738
G1 X124.598 Y49.76 E6.51279
G1 X124.778 Y50.026 E6.52768
G1 X124.852 Y50.379 E6.54441
G1 X124.852 Y52.998 E6.66587
G1 X140.871 Y52.998 E7.40875
G1 X141.224 Y53.072 E7.42548
G1 X141.47 Y53.233 E7.43911
G1 X141.647 Y53.461 E7.4525
G1 X141.738 Y53.723 E7.46536
G1 X141.752 Y53.879 E7.47262
G1 X141.752 Y156.121 E12.2141
G1 X141.7 Y156.419 E12.22813
G1 X141.527 Y156.71 E12.24383
G1 X141.302 Y156.889 E12.25716
G1 X140.963 Y156.997 E12.27366
G1 X140.871 Y157.002 E12.27793
G1 X124.852 Y157.002 E13.02081
G1 X124.852 Y159.621 E13.14227
G1 X124.838 Y159.69 E13.14554
G1 X123.971 Y159.915 F12000
;TYPE:External perimeter
G1 F2970
G1 X118.229 Y159.915 E13.41183
G1 X118.049 Y159.854 E13.42064
G1 X117.945 Y159.696 E13.42941
G1 X117.935 Y159.621 E13.43292
G1 X117.935 Y156.415 E13.5816
G1 X114.629 Y156.415 E13.73492
G1 X114.446 Y156.351 E13.74391
G1 X114.34 Y156.173 E13.75352
G1 X114.335 Y53.879 E18.49741
G1 X114.41 Y53.682 E18.50719
M73 P10 R25
G1 X114.481 Y53.625 E18.51141
G1 X114.729 Y53.585 E18.52306
G1 X117.935 Y53.585 E18.67174
G1 X117.935 Y50.379 E18.82042
G1 X118 Y50.194 E18.82951
G1 X118.178 Y50.089 E18.83909
G1 X123.971 Y50.085 E19.10774
G1 X124.154 Y50.149 E19.11673
G1 X124.257 Y50.311 E19.12563
G1 X124.265 Y50.379 E19.12881
G1 X124.265 Y53.585 E19.27749
G1 X140.871 Y53.585 E20.04759
G1 X141.054 Y53.649 E20.05658
G1 X141.16 Y53.827 E20.06619
G1 X141.165 Y156.121 E24.81008
G1 X141.11 Y156.293 E24.81845
G1 X140.961 Y156.401 E24.82698
G1 X140.871 Y156.415 E24.8312
G1 X124.265 Y156.415 E25.6013
G1 X124.265 Y159.621 E25.74998
G1 X124.203 Y159.802 E25.75885
G1 X124.059 Y159.899 E25.7669
G1 X123.459 Y159.913 F12000
G1 E25.3669 F2100
G92 E0
G1 Z.3 F12000
G1 X89.319 Y159.779
G1 Z.2
G1 E.4 F2100
;TYPE:Perimeter
G1 F3300
G1 X89.278 Y159.974 E.40924
G1 X89.098 Y160.24 E.42413
G1 X88.824 Y160.428 E.43954
G1 X88.471 Y160.502 E.45627
G1 X82.729 Y160.502 E.72256
G1 X82.383 Y160.431 E.73894
G1 X82.111 Y160.249 E.75412
G1 X81.913 Y159.954 E.7706
G1 X81.848 Y159.621 E.78633
G1 X81.848 Y157.002 E.90779
G1 X79.129 Y157.002 E1.03388
G1 X78.782 Y156.931 E1.05031
G1 X78.53 Y156.767 E1.06425
G1 X78.353 Y156.539 E1.07764
G1 X78.251 Y156.198 E1.09415
G1 X78.248 Y53.879 E5.8392
G1 X78.3 Y53.581 E5.85323
M73 P10 R24
G1 X78.473 Y53.29 E5.86893
G1 X78.53 Y53.233 E5.87267
G1 X78.819 Y53.054 E5.88843
G1 X79.129 Y52.998 E5.90304
G1 X81.848 Y52.998 E6.02913
G1 X81.848 Y50.379 E6.15059
G1 X81.913 Y50.046 E6.16632
G1 X82.111 Y49.751 E6.1828
G1 X82.383 Y49.569 E6.19798
G1 X82.729 Y49.498 E6.21436
G1 X88.471 Y49.498 E6.48065
G1 X88.824 Y49.572 E6.49738
G1 X89.098 Y49.76 E6.51279
G1 X89.278 Y50.026 E6.52768
G1 X89.352 Y50.379 E6.54441
G1 X89.352 Y52.998 E6.66587
G1 X105.371 Y52.998 E7.40875
G1 X105.724 Y53.072 E7.42548
G1 X105.97 Y53.233 E7.43911
G1 X106.147 Y53.461 E7.4525
G1 X106.238 Y53.723 E7.46536
G1 X106.252 Y53.879 E7.47262
G1 X106.252 Y156.121 E12.2141
G1 X106.2 Y156.419 E12.22813
G1 X106.027 Y156.71 E12.24383
G1 X105.802 Y156.889 E12.25716
G1 X105.463 Y156.997 E12.27366
G1 X105.371 Y157.002 E12.27793
G1 X89.352 Y157.002 E13.02081
G1 X89.352 Y159.621 E13.14227
G1 X89.338 Y159.69 E13.14554
G1 X88.471 Y159.915 F12000
;TYPE:External perimeter
G1 F2970
G1 X82.729 Y159.915 E13.41183
G1 X82.549 Y159.854 E13.42064
G1 X82.445 Y159.696 E13.42941
G1 X82.435 Y159.621 E13.43292
G1 X82.435 Y156.415 E13.5816
G1 X79.129 Y156.415 E13.73492
G1 X78.946 Y156.351 E13.74391
G1 X78.84 Y156.173 E13.75352
G1 X78.835 Y53.879 E18.49741
G1 X78.929 Y53.663 E18.50833
G1 X79.09 Y53.588 E18.51657
G1 X82.435 Y53.585 E18.67169
G1 X82.435 Y50.379 E18.82037
G1 X82.5 Y50.194 E18.82946
G1 X82.678 Y50.089 E18.83904
G1 X88.471 Y50.085 E19.10769
G1 X88.654 Y50.149 E19.11668
G1 X88.757 Y50.311 E19.12558
G1 X88.765 Y50.379 E19.12876
G1 X88.765 Y53.585 E19.27744
G1 X105.371 Y53.585 E20.04754
G1 X105.554 Y53.649 E20.05653
G1 X105.66 Y53.827 E20.06614
G1 X105.665 Y156.121 E24.81003
G1 X105.61 Y156.293 E24.8184
G1 X105.461 Y156.401 E24.82693
